hamburger-off.svg

<svg fill="currentColor" viewBox="0 0 24 24"><path d="M20 11a2 2 0 1 1 0 4h-1.8l-4-4zm.42 8.77v-.01L17.66 17h-.01l-2-2h.01l-4-4-2-2-7.27-7.27L1.11 3l3.01 3C3 7.5 3 9 3 9h4.11l2 2H4c-1.1 0-2 .9-2 2s.9 2 2 2h9.11l2 2H3v1c0 1.66 1.34 3 3 3h12c.33 0 .65-.07.94-.17l1.9 1.9 1.27-1.27zM21 9s0-6-9-6c-2.12 0-3.72.34-4.95.85L12.2 9z"/></svg>

<svg  viewBox="0 0 24 24" fill="currentColor"><path  d="M20 11C21.11 11 22 11.9 22 13S21.11 15 20 15H18.2L14.2 11H20M20.42 19.77L20.42 19.76L17.66 17H17.65L15.65 15H15.66L11.66 11H11.66L9.66 9H9.66L2.39 1.73L1.11 3L4.12 6C3 7.5 3 9 3 9H7.11L9.11 11H4C2.9 11 2 11.9 2 13S2.9 15 4 15H13.11L15.11 17H3V18C3 19.66 4.34 21 6 21H18C18.33 21 18.65 20.93 18.94 20.83L20.84 22.73L22.11 21.46L20.42 19.77M21 9C21 9 21 3 12 3C9.88 3 8.28 3.34 7.05 3.85L12.2 9H21Z"/></svg>
